webapp/src/assets/icons/cloudproviders/aws/networking_content_delivery/network_access_control_List.svg

<svg width="48" height="48" xmlns="http://www.w3.org/2000/svg"><path d="M32.625 35.376h2V12.625h-2v22.751Zm-19.25 0h2V12.625h-2v22.751Zm26.25-9.89-1.782-1.485 1.782-1.486v2.971Zm1.424-6.011a1.004 1.004 0 0 0-1.065.136l-4.344 3.621a1.003 1.003 0 0 0 0 1.538l4.345 3.62a1.003 1.003 0 0 0 1.064.136 1 1 0 0 0 .576-.905V20.38a1 1 0 0 0-.576-.905ZM8.375 25.486v-2.971l1.782 1.486-1.782 1.485Zm-.359-5.875a1.003 1.003 0 0 0-1.641.769v7.241a1 1 0 0 0 1.64.769l4.345-3.62a1.003 1.003 0 0 0 0-1.538l-4.344-3.621ZM24 44.001c-11.028 0-20-8.972-20-20S12.972 4 24 4s20 8.973 20 20.001-8.972 20-20 20ZM24 2C11.869 2 2 11.869 2 24.001c0 12.131 9.869 22 22 22s22-9.869 22-22C46 11.869 36.131 2 24 2Zm4.246 27.126-8.496-.005.002-6.745 8.498.004-.004 6.746Zm-5.867-10.075c.002-.552.187-1.064.523-1.443.304-.34.696-.529 1.105-.529h.005c.889.003 1.61.898 1.607 1.997l-.001 1.303-3.245-.002.006-1.326Zm6.871 1.329-1.632-.001.001-1.3c.007-2.199-1.609-3.993-3.601-4h-.011c-.989 0-1.912.427-2.601 1.202a4.169 4.169 0 0 0-1.027 2.762l-.006 1.334-1.621-.001a.997.997 0 0 0-1 1l-.002 8.745a1 1 0 0 0 1 1l10.496.005a.997.997 0 0 0 1-1l.004-8.746a.997.997 0 0 0-1-1Z" fill="#8C4FFF" fill-rule="evenodd"/></svg>

<?xml version="1.0" encoding="UTF-8"?>
<svg width="48px" height="48px" viewBox="0 0 48 48" version="1.1" xmlns="http://www.w3.org/2000/svg" xmlns:xlink="http://www.w3.org/1999/xlink">
    <title>Icon-Resource/Networking-and-Content-Delivery/Res_Amazon-VPC_Network-Access-Control-List_48</title>
    <g id="Icon-Resource/Networking-and-Content-Delivery/Res_Amazon-VPC_Network-Access-Control-List_48" stroke="none" stroke-width="1" fill="none" fill-rule="evenodd">
        <path d="M32.625,35.376 L34.625,35.376 L34.625,12.625 L32.625,12.625 L32.625,35.376 Z M13.375,35.376 L15.375,35.376 L15.375,12.625 L13.375,12.625 L13.375,35.376 Z M39.625,25.486 L37.843,24.001 L39.625,22.515 L39.625,25.486 Z M41.049,19.475 C40.701,19.311 40.284,19.363 39.984,19.611 L35.64,23.232 C35.412,23.423 35.28,23.704 35.28,24.001 C35.28,24.298 35.412,24.579 35.64,24.77 L39.985,28.39 C40.168,28.542 40.396,28.621 40.625,28.621 C40.77,28.621 40.914,28.59 41.049,28.526 C41.4,28.362 41.625,28.009 41.625,27.621 L41.625,20.38 C41.625,19.992 41.4,19.639 41.049,19.475 L41.049,19.475 Z M8.375,25.486 L8.375,22.515 L10.157,24.001 L8.375,25.486 Z M8.016,19.611 C7.717,19.364 7.302,19.31 6.951,19.475 C6.6,19.639 6.375,19.992 6.375,20.38 L6.375,27.621 C6.375,28.009 6.6,28.362 6.951,28.526 C7.086,28.59 7.231,28.621 7.375,28.621 C7.605,28.621 7.832,28.542 8.015,28.39 L12.36,24.77 C12.588,24.579 12.72,24.298 12.72,24.001 C12.72,23.704 12.588,23.423 12.36,23.232 L8.016,19.611 Z M24,44.001 C12.972,44.001 4,35.029 4,24.001 C4,12.973 12.972,4 24,4 C35.028,4 44,12.973 44,24.001 C44,35.029 35.028,44.001 24,44.001 L24,44.001 Z M24,2 C11.869,2 2,11.869 2,24.001 C2,36.132 11.869,46.001 24,46.001 C36.131,46.001 46,36.132 46,24.001 C46,11.869 36.131,2 24,2 L24,2 Z M28.246,29.126 L19.75,29.121 L19.752,22.376 L28.25,22.38 L28.246,29.126 Z M22.379,19.051 C22.381,18.499 22.566,17.987 22.902,17.608 C23.206,17.268 23.598,17.079 24.007,17.079 L24.012,17.079 C24.901,17.082 25.622,17.977 25.6190093,19.076 L25.618,20.379 L22.373,20.377 L22.379,19.051 Z M29.25,20.38 L27.618,20.379 L27.619,19.079 C27.626,16.88 26.01,15.086 24.018,15.079 L24.007,15.079 C23.018,15.079 22.095,15.506 21.406,16.281 C20.747,17.024 20.382,18.006 20.379,19.043 L20.373,20.377 L18.752,20.376 C18.487,20.376 18.232,20.481 18.045,20.669 C17.857,20.856 17.752,21.11 17.752,21.376 L17.75,30.121 C17.75,30.673 18.197,31.121 18.75,31.121 L29.246,31.126 C29.511,31.126 29.766,31.021 29.953,30.833 C30.141,30.646 30.246,30.392 30.246,30.126 L30.25,21.38 C30.25,21.115 30.145,20.86 29.957,20.673 C29.77,20.485 29.516,20.38 29.25,20.38 L29.25,20.38 Z" id="AWS-Amazon-VPC_Network-access-control-list_Resource-Icon_light-bg" fill="#8C4FFF"></path>
    </g>
</svg>
